src/assets/duotone/FilterEdit.svg

<svg width="24" height="24" viewBox="0 0 24 24"  xmlns="http://www.w3.org/2000/svg">
<path opacity="0.4" d="M20.58 4.01999V5.97C19.9 5.47 19.12 5.1 18.27 4.91C17.83 4.8 17.3599 4.75 16.8799 4.75C13.4299 4.75 10.6299 7.55 10.6299 11C10.6299 12.14 10.94 13.26 11.53 14.22C12.03 15.06 12.7299 15.76 13.4899 16.23C13.7499 16.4 14.0199 16.55 14.2999 16.68V19.07C14.2999 19.68 13.9 20.49 13.4 20.79L11.9999 21.7C10.6999 22.51 8.90991 21.6 8.90991 19.98V14.63C8.90991 13.92 8.50992 13.01 8.10992 12.51L4.31995 8.47C3.81995 7.96 3.41992 7.05001 3.41992 6.45001V4.12C3.41992 2.91 4.31991 2 5.40991 2H18.59C19.68 2 20.58 2.90999 20.58 4.01999Z" />
<path d="M17.9199 6.37C17.5899 6.29 17.2399 6.25 16.8799 6.25C14.2599 6.25 12.1299 8.38 12.1299 11C12.1299 11.89 12.3799 12.73 12.8199 13.45C13.1899 14.07 13.6999 14.6 14.3199 14.98C15.0599 15.47 15.9399 15.75 16.8799 15.75C18.6199 15.75 20.1299 14.82 20.9499 13.45C21.3899 12.73 21.6299 11.89 21.6299 11C21.6299 8.74 20.0499 6.84 17.9199 6.37ZM18.8299 10.57L16.3999 13C16.3099 13.09 16.1199 13.18 15.9899 13.2L15.0599 13.33C14.7199 13.38 14.4899 13.14 14.5399 12.81L14.6699 11.88C14.6899 11.75 14.7799 11.57 14.8699 11.47L16.9499 9.39001L17.2999 9.04001C17.7199 8.62001 18.2099 8.42001 18.8199 9.04001C19.4299 9.66001 19.2499 10.15 18.8299 10.57Z" />
</svg>

<?xml version="1.0" encoding="UTF-8"?>
<svg width="24" height="24" viewBox="0 0 24 24" xmlns="http://www.w3.org/2000/svg">
 <path d="m20.58 4.02v1.95c-0.68-0.5-1.46-0.87-2.31-1.06-0.44-0.11-0.9101-0.16-1.3901-0.16-3.45 0-6.25 2.8-6.25 6.25 0 1.14 0.3101 2.26 0.9001 3.22 0.5 0.84 1.1999 1.54 1.9599 2.01 0.26 0.17 0.53 0.32 0.81 0.45v2.39c0 0.61-0.3999 1.42-0.8999 1.72l-1.4001 0.91c-1.3 0.81-3.09-0.1-3.09-1.72v-5.35c0-0.71-0.39999-1.62-0.79999-2.12l-3.79-4.04c-0.5-0.51-0.90003-1.42-0.90003-2.02v-2.33c0-1.21 0.89999-2.12 1.99-2.12h13.18c1.09 0 1.99 0.90999 1.99 2.02z" opacity=".4"/>
 <path d="m17.92 6.37c-0.33-0.08-0.68-0.12-1.04-0.12-2.62 0-4.75 2.13-4.75 4.75 0 0.89 0.25 1.73 0.69 2.45 0.37 0.62 0.88 1.15 1.5 1.53 0.74 0.49 1.62 0.77 2.56 0.77 1.74 0 3.25-0.93 4.07-2.3 0.44-0.72 0.68-1.56 0.68-2.45 0-2.26-1.58-4.16-3.71-4.63zm0.91 4.2-2.43 2.43c-0.09 0.09-0.28 0.18-0.41 0.2l-0.93 0.13c-0.34 0.05-0.57-0.19-0.52-0.52l0.13-0.93c0.02-0.13 0.11-0.31 0.2-0.41l2.43-2.43c0.42-0.42 0.91-0.62 1.52 0s0.43 1.11 0.01 1.53z"/>
</svg>
